src/assets/outline/ShieldSlash.svg

<svg width="24" height="24" viewBox="0 0 24 24"  xmlns="http://www.w3.org/2000/svg">
<path d="M12.0001 22.7601C10.9101 22.7601 9.83012 22.4401 8.98012 21.8101L7.39012 20.6201C7.06012 20.3701 6.99012 19.9001 7.24012 19.5701C7.49012 19.2401 7.96012 19.1701 8.29012 19.4201L9.88012 20.6101C11.0301 21.4701 12.9801 21.4701 14.1301 20.6101L18.4301 17.4001C19.1901 16.8301 19.8501 15.5001 19.8501 14.5601V7.12012C19.8501 6.71012 20.1901 6.37012 20.6001 6.37012C21.0101 6.37012 21.3501 6.71012 21.3501 7.12012V14.5501C21.3501 15.9701 20.4601 17.7401 19.3201 18.5901L15.0201 21.8001C14.1701 22.4401 13.0901 22.7601 12.0001 22.7601Z" />
<path d="M5.3299 18.8999C5.1699 18.8999 5.0199 18.8499 4.8799 18.7499L4.6799 18.5999C3.5399 17.7499 2.6499 15.9699 2.6499 14.5599V7.11994C2.6499 5.57994 3.7799 3.93994 5.2299 3.39994L10.2199 1.52994C11.2099 1.15994 12.7699 1.15994 13.7599 1.52994L18.7599 3.39994C18.9699 3.47994 19.1699 3.57994 19.3699 3.69994C19.7199 3.91994 19.8299 4.37994 19.6099 4.72994C19.3899 5.07994 18.9299 5.18994 18.5799 4.96994C18.4699 4.89994 18.3599 4.83994 18.2399 4.79994L13.2399 2.92994C12.5799 2.67994 11.4099 2.67994 10.7499 2.92994L5.7599 4.80994C4.8999 5.12994 4.1499 6.20994 4.1499 7.12994V14.5599C4.1499 15.5099 4.8199 16.8399 5.5699 17.3999L5.7699 17.5499C6.0999 17.7999 6.1699 18.2699 5.9199 18.5999C5.7899 18.7899 5.5599 18.8999 5.3299 18.8999Z" />
<path d="M1.99994 22.7499C1.80994 22.7499 1.61994 22.6799 1.46994 22.5299C1.17994 22.2399 1.17994 21.7599 1.46994 21.4699L21.4699 1.46994C21.7599 1.17994 22.2399 1.17994 22.5299 1.46994C22.8199 1.75994 22.8199 2.23994 22.5299 2.52994L2.52994 22.5299C2.37994 22.6799 2.18994 22.7499 1.99994 22.7499Z" />
</svg>

<?xml version="1.0" encoding="UTF-8"?>
<svg width="24" height="24" viewBox="0 0 24 24" xmlns="http://www.w3.org/2000/svg">
 <path d="m12 22.76c-1.09 0-2.17-0.32-3.02-0.95l-1.59-1.19c-0.33-0.25-0.4-0.72-0.15-1.05s0.72-0.4 1.05-0.15l1.59 1.19c1.15 0.86 3.1 0.86 4.25 0l4.3-3.21c0.76-0.57 1.42-1.9 1.42-2.84v-7.44c0-0.41 0.34-0.75 0.75-0.75s0.75 0.34 0.75 0.75v7.43c0 1.42-0.89 3.19-2.03 4.04l-4.3 3.21c-0.85 0.64-1.93 0.96-3.02 0.96z"/>
 <path d="m5.3299 18.9c-0.16 0-0.31-0.05-0.45-0.15l-0.2-0.15c-1.14-0.85-2.03-2.63-2.03-4.04v-7.44c0-1.54 1.13-3.18 2.58-3.72l4.99-1.87c0.99-0.37 2.55-0.37 3.54 0l5 1.87c0.21 0.08 0.41 0.18 0.61 0.3 0.35 0.22 0.46 0.68 0.24 1.03s-0.68 0.46-1.03 0.24c-0.11-0.07-0.22-0.13-0.34-0.17l-5-1.87c-0.66-0.25-1.83-0.25-2.49 0l-4.99 1.88c-0.86 0.32-1.61 1.4-1.61 2.32v7.43c0 0.95 0.67 2.28 1.42 2.84l0.2 0.15c0.33 0.25 0.4 0.72 0.15 1.05-0.13 0.19-0.36 0.3-0.59 0.3z"/>
 <path d="m1.9999 22.75c-0.19 0-0.38-0.07-0.53-0.22-0.29-0.29-0.29-0.77 0-1.06l20-20c0.29-0.29 0.77-0.29 1.06 0s0.29 0.77 0 1.06l-20 20c-0.15 0.15-0.34 0.22-0.53 0.22z"/>
</svg>
